X:1
T:Archived birthday songs
T:Archived birthday songs
T:Sim Boels 
T: For Callum Ware's birthday
T: Waltz
T: For Hannah Baldoz' birthday
T:Truth Is an Arrow
T:Text: Truth is an arrow and the gate is narrow that it passes through, He unleashed His power at an unknown hour that no one knew. How long can you falsify and deny what is real? How long can you hate yourself for the weakness you conceal? Can I cast it aside, all this loyalty and this pride? Will I ever learn that there'll be no peace, that the war won't cease until He returns? Bob Dylan (from When He Returns)
T:Etude quasi una pop song
T: For Cedo L's birthday
T:Bagatelle
T: For Pensive's birthday
C:Sim Boels
%%score { ( 1 3 ) | ( 2 4 ) }
L:1/8
Q:1/4=152
M:3/4
K:G
V:1 treble nm="Piano" snm="Pno."
V:3 treble 
V:2 bass 
V:4 bass 
V:1
"^Vivace" Bc dB G2- | G2 A2 B2 | c2 cB cd | e4 c2 | B2 Bc dB | G4 A2 | B2 c2 cB | c6 | B2 B3 c | %9
 dB G4 | A2 B3 c | cB cd eg | g4 d2 | =f4 e2 | dc Bc AB | c4 Bc | dB c2 e2 | G3 G AB | c2 cd e=f | %19
 g4 Bc | dB c2 e2 | d2 B2 cB | AB c4 | B4 BG | g4 BG | =f4 BG | =f2 f2 f2 | =f2 e2 cG | e2 e2 e2 | %29
 e2 d2 c2 | B2 c2 A2 | G4 BG | g4 =fe | d4 dc | _B6- | B6- | [_B,B]6 | [A,FA]2 FD c2 | FD G2 BG | %39
 d2 de dc | B2 BA G2 | FD c2 BA | Bc dB AG | E2 G2 F2 | G4 GA | Bc dB G2- | G2 A2 B2 | c2 cB cd | %48
 e4 c2 | B2 Bc dB | G4 A2 | B2 c2 cB | c6 | B2 B3 c | dB G4 | A2 B3 c | cB cd eg | g4 d2 | =f4 e2 | %59
 dc Bc AB | c6 |] z6 |[K:F] z6 |[M:4/4][Q:1/4=120] c4 d2 d2 | c4 c4 | B2 A2 G2 F2 | G4 A4 | %67
 B2 A2 G2 F2 | F8 | c2 c2 d2 d2 | c4 c4 | B2 A2 G2 F2 | G4 A4 | z2 A2 G2 F2 | F8 | G2 G2 A2 A2 | %76
 G3 c c4 | c2 c2 d2 d2 | c8 | d2 c2 B2 A2 | B3 B A2 BA | G2 F2 G2 G2 | F8 | c2 c2 d2 AA | c4 A4 | %85
 B2 A2 G2 F2 | G2 G2 A4 | F2 A2 G2 F2 | F8 | c2 c2 d2 A2 | c4 f4 | c2 c2 c2 c2 | c8 | B2 A2 G2 F2 | %94
 F8 |] z8 |][K:Eb] z8 |[M:2/2][Q:1/4=184]"^Allegro" GA B4 cB- | B2 A2 G2 FE- | E8 | C4 E4 | %101
 GA B4 cd- | d2 e2 B2 GA- | A8 | G4 F2 EF- | F2 G2 A2 Bc- | c2 d2 B2 AG- | GB e6 | B4 A2 GF- | %109
 F2 G2 A2 Bc- | c2 d2 B2 AG- | G8- | G4- GDEF | GA B4 cB- | B2 A2 G2 FE- | E8 | C4 E4 | GA B4 cd- | %118
 d2 e2 B2 GA- | A8 | G4 F2 EF- | F2 G2 A2 Bc- | c2 d2 B2 AG- | GB e6 | B4 G4 | _G2 F4 EG- | %126
 G2 F2 E2 _DE- | E8 | z8 | GA B6 | G=A =B6 | c4 c4 | d4 e4 | f2 e2 d2 cB- | B4 =B4 | c2 e2 d2 cB- | %136
 B2 A2 GFED | EF G4 AG- | G2 F2 E2 DE- | EG B4 cB- | B2 B2 G2 FE- | EG A4- AC | DF G4 BE- | E8- | %144
 E4- EDEF | GA B6 | G=A =B6 | c4 c4 | B4 A4 | GA B6 | EF A6 | A4 _G4 | F4 E4 | GA B6 | G=A =B6 | %155
 c4 c4 | B4 A4 | e4 E4 | FG A6 | G4 F4 | E4- EDEF | GA B4 cB- | B2 A2 G2 FE- | E8 | C4 E4 | %165
 GA B4 cd- | d2 e2 B2 GA- | A8 | G4 F2 EF- | F2 G2 A2 Bc- | c2 d2 B2 AG- | GB e6 | B4 G4 | %173
 _G2 F4 EG- | G2 F2 E2 _DE- | E8 | z8 | _G2 F4 EG- | G2 F2 E2 _DE- | E8 | z8 | _G4 F4- | %182
 F4 E2 _G2- | G4 F4 | E4 _D2 E2- | E8- | E8 | z8 | z8 |][K:Eb] z8 ||[K:C] z8 | %191
[M:4/4][Q:1/4=80]"^Lento" bg e2 g2 f2 | e2 d2 e4 | bg e2 g2 f2 | e2 d2 B2 (3fga | bg e2 g2 f2 | %196
 e2 d2 (3:2:2e2 f (3edc | A3 c df (3edc | A2 c2 A4 | A2 A2 c2 c2 | de e>d e4 | A2 A2 c2 c2 | %202
 de e>d B2 (3dcB | A2 A2 c2 c2 | de e>d efga | e4 Bcde | A2 A>G A4 |[Q:1/4=79] A3 c de (3dcB | %208
 A4 z4 | A3 c[Q:1/4=72] de[Q:1/4=68] (3dcB |[Q:1/4=64] A4[Q:1/4=40] [Be]4[Q:1/4=56] |] %211
V:2
 G,2 [B,D]2 [B,D]2 | =F,2 [G,D]2 [G,D]2 | E,2 [G,C]2 [G,C]2 | C,2 [E,G,]2 [E,G,]2 | %4
 G,,2 [D,G,]2 [D,G,]2 | B,,2 [D,G,]2 [D,G,]2 | D,2 [=F,A,]2 [F,G,]2 | C,2 [E,G,]2 [E,G,]2 | %8
 G,,2 [D,G,]2 [D,G,]2 | B,,2 [D,G,]2 [D,G,]2 | G,,2 [D,G,]2 [D,G,]2 | C,2 G,2 G,2 | B,C DB, G,2 | %13
 =F2 D2 C2 | z2 [D=F]2 [DF]2 | C,6 | z2 E2 C2 | B,2 G,2 =F,2 | z2 C2 G,2 | E,2 D,2 C,2 | %20
 B,2 A,2 G,2 | D,2 G,,2 C,2 | z2 A,2 D2 | D4 z2 | z2 G,D, G,2 | z2 B,G, D2 | z2 C2 D2 | D2 C2 z2 | %28
 C,4 B,,2 | A,,2 B,,2 C,2 | D,4 D,2 | B,,2 A,,2 G,,2 | z2 G,D, G,2 | z2 B,G, D2 | %34
 _E,2 [G,_B,]2 [G,B,]2 | D,2 [G,_B,]2 [G,B,]2 | ^C,2 [E,G,]2 [E,G,]2 | D,2 [F,A,]2 [F,A,]2 | %38
 D,2 [G,B,]2 [G,B,]2 | D,2 [A,C]2 [A,C]2 | G,2 [B,D]2 [B,D]2 | D,2 [F,A,]2 [F,A,]2 | %42
 D,2 [G,B,]2 [G,B,]2 | C,2 [D,B,]2 [D,A,]2 | G,,2 [D,B,]2 [D,B,]2 | G,,2 [D,B,]2 [D,B,]2 | %46
 =F,2 [G,D]2 [G,D]2 | E,2 [G,C]2 [G,C]2 | C,2 [E,G,]2 [E,G,]2 | G,,2 [D,G,]2 [D,G,]2 | %50
 B,,2 [D,G,]2 [D,G,]2 | D,2 [=F,A,]2 [F,G,]2 | C,2 [E,G,]2 [E,G,]2 | G,,2 [D,G,]2 [D,G,]2 | %54
 B,,2 [D,G,]2 [D,G,]2 | G,,2 [D,G,]2 [D,G,]2 | C,2 G,2 G,2 | B,C DB, G,2 | =F2 D2 C2 | %59
 z2 [D=F]2 [DF]2 | C,6 |] z6 |[K:F] z6 |[M:4/4] C4 B,2 B,2 | A,4 C4 | B,2 F,2 G,2 A,2 | %66
 F,2 E,2 F,3 F, | F,4 E,4 | C,8 | C2 C2 B,2 B,2 | A,4 C4 | B,2 F,2 G,2 A,2 | F,2 E,2 F,4 | %73
 A,2 F,2 G,4 | C,8 | G,2 G,2 F,2 F,2 | C4 C2 C2 | A,2 G,2 C3 =B, | C4 G,2 A,2 | B,2 C2 C2 C2 | %80
 C3 C C2 CC | F,2 G,2 E,2 E,2 | F,,8 | C2 C2 B,2 CC | C8 | C2 C2 C2 C2 | D2 C2 C4 | %87
 A,2 F,2 G,2 G,2 | C,8 | C2 C2 B,2 C2 | C8 | B,2 A,2 G,2 A,2 | B,4 A,4 | F,2 F,F, E,4 | C,8 |] %95
 z8 |][K:Eb] z8 |[M:2/2]"_Con Pedale"!ped! E,2 B,3 G, E,2!ped-up! |!ped! D,2 B,3 G, F,2!ped-up! | %99
!ped! C,2 C3 A, E,2!ped-up! |!ped! C,2 A,3 G, F,2!ped-up! |!ped! E,2 B,3 G, E,2!ped-up! | %102
!ped! D,2 B,3 G, F,2!ped-up! |!ped! C,2 C3 A, E,2!ped-up! |!ped! C,2 A,3 E, C,2!ped-up! | %105
!ped! B,,2 C3 A, F,2!ped-up! |!ped! B,,2 C3 A, F,2!ped-up! |!ped! B,,2 B,3 G, E,2!ped-up! | %108
!ped! E,,2 B,3 G, E,2!ped-up! |!ped! B,,2 C3 A, F,2!ped-up! |!ped! B,,2 C3 A, F,2!ped-up! | %111
!ped! E,,2 E3 B, G,2!ped-up! |!ped! E,2 B,3 G, E,2!ped-up! |!ped! E,,2 B,3 G, E,2!ped-up! | %114
!ped! D,2 B,3 G, F,2!ped-up! |!ped! C,2 C3 A, E,2!ped-up! |!ped! C,2 A,3 G, F,2!ped-up! | %117
!ped! E,2 B,3 G, E,2!ped-up! |!ped! D,2 B,3 G, F,2!ped-up! |!ped! C,2 C3 A, E,2!ped-up! | %120
!ped! C,2 A,3 E, C,2!ped-up! |!ped! B,,2 C3 A, F,2!ped-up! |!ped! B,,2 C3 A, F,2!ped-up! | %123
!ped! B,,2 B,3 G, E,2!ped-up! |!ped! E,,2 B,3 G, E,2!ped-up! |!ped! _G,,2 B,3 A, _D,2!ped-up! | %126
!ped! F,,2 A,3 E, C,2!ped-up! |!ped! E,,2 G,3 E, B,,2!ped-up! |!ped! E,,2 E3 B, G,2!ped-up! | %129
!ped! E,2 B,3 G, E,2!ped-up! |!ped! D,2 G,3 F, D,2!ped-up! |!ped! C,2 C3 G, E,2!ped-up! | %132
!ped! C,2 G,3 E, C,2!ped-up! |!ped! F,,2 F,3 C, A,,2!ped-up! |!ped! G,,2 G,3 F, D,2!ped-up! | %135
!ped! C,2 G,3 E, C,2!ped-up! |!ped! C,,2 C3 G, E,2!ped-up! |!ped! C,2 G,3 E, C,2!ped-up! | %138
!ped! B,,2 B,3 A, F,2!ped-up! |!ped! E,2 E3 B, G,2!ped-up! |!ped! E,2 _D3 B, G,2!ped-up! | %141
!ped! A,,2 A,3 E, C,2!ped-up! |!ped! B,,2 B,3 F, D,2!ped-up! |!ped! E,,2 G,3 E, B,,2!ped-up! | %144
!ped! E,,2 B,3 G, E,2!ped-up! |!ped! E,,2 B,3 G, E,2!ped-up! |!ped! D,2 G,3 F, D,2!ped-up! | %147
!ped! C,2 C3 G, E,2!ped-up! |!ped! C,2 E3 A, E,2!ped-up! |!ped! B,,2 B,3 G, E,2!ped-up! | %150
!ped! _C,2 A,3 E, C,2!ped-up! |!ped! _G,,2 B,3 A, _D,2!ped-up! |!ped! F,,2 A,3 E, C,2!ped-up! | %153
!ped! E,,2 B,3 G, E,2!ped-up! |!ped! D,2 G,3 F, D,2!ped-up! |!ped! C,2 C3 G, E,2!ped-up! | %156
!ped! C,2 E3 A, E,2!ped-up! |!ped! B,,2 B,3 G, E,2!ped-up! |!ped! B,,2 C3 A, F,2!ped-up! | %159
!ped! E,,2 E3 B, G,2!ped-up! |!ped! E,2 B,3 G, E,2!ped-up! |!ped! E,,2 B,3 G, E,2!ped-up! | %162
!ped! D,2 B,3 G, F,2!ped-up! |!ped! C,2 C3 A, E,2!ped-up! |!ped! C,2 A,3 G, F,2!ped-up! | %165
!ped! E,2 B,3 G, E,2!ped-up! |!ped! D,2 B,3 G, F,2!ped-up! |!ped! C,2 C3 A, E,2!ped-up! | %168
!ped! C,2 A,3 E, C,2!ped-up! |!ped! B,,2 C3 A, F,2!ped-up! |!ped! B,,2 C3 A, F,2!ped-up! | %171
!ped! B,,2 B,3 G, E,2!ped-up! |!ped! E,,2 B,3 G, E,2!ped-up! |!ped! _G,,2 B,3 A, _D,2!ped-up! | %174
!ped! F,,2 A,3 E, C,2!ped-up! |!ped! E,,2 G,3 E, B,,2!ped-up! |!ped! E,,2 B,3 G, E,2!ped-up! | %177
!ped! _G,,2 B,3 A, _D,2!ped-up! |!ped! F,,2 A,3 E, C,2!ped-up! |!ped! E,,2 G,3 E, B,,2!ped-up! | %180
!ped! E,,2 B,3 G, E,2!ped-up! |!ped! _G,,2 B,3 A, _D,2!ped-up! |!ped! _G,,2 B,3 A, _D,2!ped-up! | %183
!ped! F,,2 A,3 E, C,2!ped-up! |!ped! F,,2 A,3 E, C,2!ped-up! |!ped! E,,2 G,3 E, B,,2!ped-up! | %186
!ped! E,,2 B,3 G, E,2!ped-up! |!ped! z4 [G,B,E]4- | [G,B,E]8!ped-up! |][K:Eb] z8 ||[K:C] z8 | %191
[M:4/4] A,,2 [E,A,C]2 C,2 [G,CE]2 | E,2 [B,EG]2 D,2 [A,CF]2 | A,,2 [E,A,C]2 C,2 [G,CE]2 | %194
 D,2 [A,CF]2 E,2 [B,EG]2 | A,,2 [E,A,C]2 C,2 [G,CE]2 | E,2 [B,EG]2 D,2 [A,CF]2 | %197
 A,,2 [E,A,C]2 D,2 [A,CF]2 | A,,2 [E,A,C]2 [F,A,C]2 [D,G,B,]2 | A,,2 [E,A,C]2 C,2 [G,CE]2 | %200
 E,2 [B,EG]2 D,2 [A,CF]2 | A,,2 [E,A,C]2 C,2 [G,CE]2 | D,2 [A,CF]2 E,2 [B,EG]2 | %203
 A,,2 [E,A,C]2 C,2 [G,CE]2 | E,2 [B,EG]2 D,2 [A,CF]2 | A,,2 [E,A,C]2 D,2 [A,CF]2 | %206
 A,,2 [E,A,C]2 [F,A,C]2 [D,G,B,]2 |"^meno mosso" A,,2 [E,A,C]2 [F,A,B,]4 | %208
 A,,2 [E,A,C]2 [F,A,B,]2 E,,2 | A,,2 [E,A,C]2"^rallentando" [F,A,B,]4 | A,,2 E,2 [A,C]4 |] %211
V:3
 x6 | x6 | x6 | x6 | x6 | x6 | x6 | x6 | x6 | =F2 F3 E | DE =F4 | E2 D2 C2 | G2 G3 A | A2 B2 c2 | %14
 x6 | E6 | x6 | x6 | x6 | x6 | z4 AG | FA G2 E2 | F6 | G4 z2 | x6 | x6 | G2 A2 B2 | c4 z2 | %28
 c2 cB c2 | c2 G2 E2 | G2 E2 F2 | x6 | x6 | x6 | z2 G2 =F2 | _ED E=F GA | _B2 A2 G2 | x6 | x6 | %39
 x6 | x6 | x6 | x6 | x6 | x6 | x6 | x6 | x6 | x6 | x6 | x6 | x6 | x6 | x6 | =F2 F3 E | DE =F4 | %56
 E2 D2 C2 | G2 G3 A | A2 B2 c2 | x6 | E6 |] x6 |[K:F] x6 |[M:4/4] A4 F2 F2 | F4 F4 | F2 C2 C2 C2 | %66
 D2 C2 C3 C | D2 C2 B,4 | A,8 | A2 A2 F2 F2 | F4 F4 | F2 C2 C2 C2 | D2 C2 C4 | C4 B,4- | %74
 B,2 G,2 A,4 | E2 C2 C2 F2 | E4 E2 G2 | C2 C2 F2 F2 | E8 | F2 F2 E2 F2 | F2 E2 F2 FF | %81
 B,2 B,2 G,A, B,2 | A,8 | A2 A2 F2 FF | G4 F4 | G2 F2 E2 F2 | F2 E2 F4 | C2 C2 B,2 B,2 | A,8 | %89
 A4 F2 F2 | G4 A4 | G2 F2 E2 F2 | F2 E2 F4 | D2 C2 B,4- | B,2 G,2 A,4 |] x8 |][K:Eb] x8 | %97
[M:2/2] x8 | x8 | x8 | x8 | x8 | x8 | x8 | x8 | x8 | x8 | x8 | x8 | x8 | x8 | x8 | x8 | x8 | x8 | %115
 x8 | x8 | x8 | x8 | x8 | x8 | x8 | x8 | x8 | x8 | x8 | x8 | x8 | x8 | x8 | x8 | x8 | x8 | x8 | %134
 x8 | x8 | x8 | x8 | x8 | x8 | x8 | x8 | x8 | x8 | x8 | x8 | x8 | x8 | x8 | x8 | x8 | x8 | x8 | %153
 x8 | x8 | x8 | x8 | x8 | x8 | x8 | x8 | x8 | x8 | x8 | x8 | x8 | x8 | x8 | x8 | x8 | x8 | x8 | %172
 x8 | x8 | x8 | x8 | x8 | x8 | x8 | x8 | x8 | x8 | x8 | x8 | x8 | x8 | x8 | x8 | x8 |][K:Eb] x8 || %190
[K:C] x8 |[M:4/4] x8 | x8 | x8 | x8 | x8 | x8 | x8 | x8 | x8 | x8 | x8 | x8 | x8 | x8 | x8 | x8 | %207
 x8 | x8 | x8 | x8 |] %211
V:4
 x6 | x6 | x6 | x6 | x6 | x6 | x6 | x6 | x6 | x6 | x6 | x6 | G,4 z2 | x6 | G,6 | x6 | G,6- | %17
 G,2 z4 | E,6 | x6 | G,4 G,2 | x6 | D,6 | G,,4 z2 | G,,2 B,,4 | B,,2 D,4 | D,2 G,2 G,2 | C,6 | x6 | %29
 x6 | x6 | x6 | G,,2 B,,4 | B,,2 D,4 | x6 | x6 | x6 | x6 | x6 | x6 | x6 | x6 | x6 | x6 | x6 | x6 | %46
 x6 | x6 | x6 | x6 | x6 | x6 | x6 | x6 | x6 | x6 | x6 | G,4 z2 | x6 | G,6 | x6 |] x6 |[K:F] x6 | %63
[M:4/4] F,4 B,,2 D,2 | F,4 A,,2 B,,C, | D,E, F,2 E,2 F,2 | B,,2 C,2 F,,3 F,, | B,,2 C,2 C,4 | %68
 F,,8 | F,2 F,2 B,,2 D,2 | F,4 A,,2 B,,C, | D,E, F,2 E,2 F,2 | B,,2 C,2 F,,4 | F,,4 C,2 C,2 | %74
 F,,8 | C,2 E,2 F,2 C,2 | C,4 C,2 D,E, | F,2 E,2 D,2 G,,2 | C,8 | B,,2 A,,2 G,,2 F,,2 | %80
 G,,2 G,,2 F,,2 G,,A,, | B,,2 D,2 C,2 C,2 | F,8 | F,2 F,2 F,2 F,F, | E,4 F,4 | E,2 F,2 G,2 A,2 | %86
 B,2 C2 F,4 | F,2 F,2 C,2 C,2 | F,,8 | F,4 F,2 F,2 | E,4 F,4 | E,2 F,2 G,2 F,2 | G,4 F,4 | %93
 B,,2 C,C, C,4 | F,,8 |] x8 |][K:Eb] x8 |[M:2/2] x8 | x8 | x8 | x8 | x8 | x8 | x8 | x8 | x8 | x8 | %107
 x8 | x8 | x8 | x8 | x8 | x8 | x8 | x8 | x8 | x8 | x8 | x8 | x8 | x8 | x8 | x8 | x8 | x8 | x8 | %126
 x8 | x8 | x8 | x8 | x8 | x8 | x8 | x8 | x8 | x8 | x8 | x8 | x8 | x8 | x8 | x8 | x8 | x8 | x8 | %145
 x8 | x8 | x8 | x8 | x8 | x8 | x8 | x8 | x8 | x8 | x8 | x8 | x8 | x8 | x8 | x8 | x8 | x8 | x8 | %164
 x8 | x8 | x8 | x8 | x8 | x8 | x8 | x8 | x8 | x8 | x8 | x8 | x8 | x8 | x8 | x8 | x8 | x8 | x8 | %183
 x8 | x8 | x8 | x8 | E,,8- | E,,8 |][K:Eb] x8 ||[K:C] x8 |[M:4/4] x8 | x8 | x8 | x8 | x8 | x8 | %197
 x8 | x8 | x8 | x8 | x8 | x8 | x8 | x8 | x8 | x8 | x8 | x8 | x8 | x8 |] %211

